presets/luts/film/AgfaVista400.cube
TITLE "Agfa Vista 400"
LUT_3D_SIZE 3
DOMAIN_MIN 0.0 0.0 0.0
DOMAIN_MAX 1.0 1.0 1.0
0.020000 0.000200 0.010000
0.520000 0.005200 0.010000
1.000000 0.010000 0.010000
0.020000 0.520200 0.010000
0.520000 0.525200 0.010000
1.000000 0.530000 0.010000
0.020000 1.000000 0.010000
0.520000 1.000000 0.010000
1.000000 1.000000 0.010000
0.020000 0.000200 0.475000
0.520000 0.005200 0.475000
1.000000 0.010000 0.475000
0.020000 0.520200 0.475000
0.520000 0.525200 0.475000
1.000000 0.530000 0.475000
0.020000 1.000000 0.475000
0.520000 1.000000 0.475000
1.000000 1.000000 0.475000
0.020000 0.000200 0.940000
0.520000 0.005200 0.940000
1.000000 0.010000 0.940000
0.020000 0.520200 0.940000
0.520000 0.525200 0.940000
1.000000 0.530000 0.940000
0.020000 1.000000 0.940000
0.520000 1.000000 0.940000
1.000000 1.000000 0.940000
