presets/luts/film/FadedPortra.cube
TITLE "Faded Portra"
LUT_3D_SIZE 3
DOMAIN_MIN 0.0 0.0 0.0
DOMAIN_MAX 1.0 1.0 1.0
0.078400 0.068800 0.078400
0.544000 0.068800 0.078400
1.000000 0.068800 0.078400
0.078400 0.524800 0.078400
0.544000 0.524800 0.078400
1.000000 0.524800 0.078400
0.078400 0.980800 0.078400
0.544000 0.980800 0.078400
1.000000 0.980800 0.078400
0.078400 0.068800 0.510400
0.544000 0.068800 0.510400
1.000000 0.068800 0.510400
0.078400 0.524800 0.510400
0.544000 0.524800 0.510400
1.000000 0.524800 0.510400
0.078400 0.980800 0.510400
0.544000 0.980800 0.510400
1.000000 0.980800 0.510400
0.078400 0.068800 0.942400
0.544000 0.068800 0.942400
1.000000 0.068800 0.942400
0.078400 0.524800 0.942400
0.544000 0.524800 0.942400
1.000000 0.524800 0.942400
0.078400 0.980800 0.942400
0.544000 0.980800 0.942400
1.000000 0.980800 0.942400
