presets/luts/film/Fuji3513Print.cube
TITLE "Fuji 3513 Print"
LUT_3D_SIZE 3
DOMAIN_MIN 0.0 0.0 0.0
DOMAIN_MAX 1.0 1.0 1.0
0.000000 0.010000 0.010200
0.485000 0.010000 0.010200
0.970000 0.010000 0.010200
0.010000 0.520000 0.020400
0.495000 0.520000 0.020400
0.980000 0.520000 0.020400
0.020000 1.000000 0.030000
0.505000 1.000000 0.030000
0.990000 1.000000 0.030000
0.000000 0.020000 0.485400
0.485000 0.020000 0.485400
0.970000 0.020000 0.485400
0.010000 0.530000 0.495600
0.495000 0.530000 0.495600
0.980000 0.530000 0.495600
0.020000 1.000000 0.505000
0.505000 1.000000 0.505000
0.990000 1.000000 0.505000
0.000000 0.030000 0.960600
0.485000 0.030000 0.960600
0.970000 0.030000 0.960600
0.010000 0.540000 0.970800
0.495000 0.540000 0.970800
0.980000 0.540000 0.970800
0.020000 1.000000 0.980000
0.505000 1.000000 0.980000
0.990000 1.000000 0.980000
