presets/luts/film/Kodak2383Print.cube
TITLE "Kodak 2383 Print"
LUT_3D_SIZE 3
DOMAIN_MIN 0.0 0.0 0.0
DOMAIN_MAX 1.0 1.0 1.0
0.010000 0.000100 0.000300
0.525000 0.005250 0.015750
1.000000 0.010000 0.030000
0.020000 0.490200 0.000600
0.535000 0.495350 0.016050
1.000000 0.500000 0.030000
0.030000 0.980300 0.000900
0.545000 0.985450 0.016350
1.000000 0.990000 0.030000
0.010000 0.000100 0.450300
0.525000 0.005250 0.465750
1.000000 0.010000 0.480000
0.020000 0.490200 0.450600
0.535000 0.495350 0.466050
1.000000 0.500000 0.480000
0.030000 0.980300 0.450900
0.545000 0.985450 0.466350
1.000000 0.990000 0.480000
0.010000 0.000100 0.900300
0.525000 0.005250 0.915750
1.000000 0.010000 0.930000
0.020000 0.490200 0.900600
0.535000 0.495350 0.916050
1.000000 0.500000 0.930000
0.030000 0.980300 0.900900
0.545000 0.985450 0.916350
1.000000 0.990000 0.930000
