presets/luts/creative/BleachBypass.cube
TITLE "Bleach Bypass"
LUT_3D_SIZE 3
DOMAIN_MIN 0.0 0.0 0.0
DOMAIN_MAX 1.0 1.0 1.0
0.000000 0.000000 0.000000
0.250985 0.000000 0.000000
0.576970 0.059470 0.059470
0.151182 0.409932 0.151182
0.477167 0.477167 0.218417
0.803152 0.544401 0.285652
0.377364 0.894864 0.377364
0.703349 0.962099 0.444599
1.000000 1.000000 0.511834
0.000000 0.000000 0.206583
0.273818 0.015068 0.273818
0.599803 0.082303 0.341053
0.174015 0.432765 0.432765
0.500000 0.500000 0.500000
0.825985 0.567235 0.567235
0.400197 0.917697 0.658947
0.726182 0.984932 0.726182
1.000000 1.000000 0.793417
0.000000 0.000000 0.488167
0.296651 0.037901 0.555401
0.622636 0.105136 0.622636
0.196849 0.455598 0.714349
0.522833 0.522833 0.781583
0.848818 0.590068 0.848818
0.423031 0.940530 0.940530
0.749015 1.000000 1.000000
1.000000 1.000000 1.000000
