presets/luts/creative/CrossProcess.cube
TITLE "Cross Process"
LUT_3D_SIZE 3
DOMAIN_MIN 0.0 0.0 0.0
DOMAIN_MAX 1.0 1.0 1.0
0.000000 0.000000 0.000000
0.450000 0.010000 0.000000
0.900000 0.020000 0.000000
0.000000 0.515000 0.020000
0.450000 0.525000 0.020000
0.900000 0.535000 0.020000
0.000000 1.000000 0.040000
0.450000 1.000000 0.040000
0.900000 1.000000 0.040000
0.040000 0.000000 0.530000
0.490000 0.010000 0.530000
0.940000 0.020000 0.530000
0.040000 0.515000 0.550000
0.490000 0.525000 0.550000
0.940000 0.535000 0.550000
0.040000 1.000000 0.570000
0.490000 1.000000 0.570000
0.940000 1.000000 0.570000
0.080000 0.000000 1.000000
0.530000 0.010000 1.000000
0.980000 0.020000 1.000000
0.080000 0.515000 1.000000
0.530000 0.525000 1.000000
0.980000 0.535000 1.000000
0.080000 1.000000 1.000000
0.530000 1.000000 1.000000
0.980000 1.000000 1.000000
